images/marker-mission.svg

<svg xmlns="http://www.w3.org/2000/svg" viewBox="0 0 64 64"><style type="text/css">.st1{fill:#c8cac9}</style><circle cx="32" cy="32" r="28.9" fill="#555556"/><path class="st1" d="M18.6 24.3v15.4l13.4 7.7 13.4-7.7v-15.4l-13.4-7.7-13.4 7.7zm22.7 13.1l-9.3 5.4-9.3-5.4v-10.8l9.3-5.4 9.3 5.4v10.8zM32 5l-23.4 13.5v27l23.4 13.5 23.4-13.5v-27l-23.4-13.5zm17.3 37l-17.3 9.9-17.3-9.9v-20l17.3-10 17.3 10v20z"/></svg>

<?xml version="1.0" encoding="utf-8"?>
<!-- Generator: Adobe Illustrator 21.0.1, SVG Export Plug-In . SVG Version: 6.00 Build 0)  -->
<svg version="1.1" id="Layer_1" xmlns="http://www.w3.org/2000/svg" xmlns:xlink="http://www.w3.org/1999/xlink" x="0px" y="0px"
	 viewBox="0 0 64 64" style="enable-background:new 0 0 64 64;" xml:space="preserve">
<style type="text/css">
	.st0{fill:#555556;}
	.st1{fill:#C8CAC9;}
</style>
<g>
	<circle class="st0" cx="32" cy="32" r="28.9"/>
</g>
<g>
	<path class="st1" d="M18.6,24.3v15.4L32,47.4l13.4-7.7V24.3L32,16.6L18.6,24.3z M41.3,37.4L32,42.8l-9.3-5.4V26.6l9.3-5.4l9.3,5.4
		V37.4z"/>
	<path class="st1" d="M32,5L8.6,18.5v27L32,59l23.4-13.5v-27L32,5z M49.3,42L32,51.9L14.7,42V22l17.3-10l17.3,10V42z"/>
</g>
</svg>
